public/avatar/item1/28.svg

<svg xmlns:xlink="http://www.w3.org/1999/xlink" height="65.4" width="80.15" xmlns="http://www.w3.org/2000/svg"><g transform="translate(31.6 13.8)"><use height="21.5" transform="translate(-31.6 19.1)" width="22.25" xlink:href="#a"/><use height="21.5" transform="matrix(-1 0 0 1 32.1 19.1)" width="22.25" xlink:href="#a"/></g><defs><use height="21.5" width="22.25" xlink:href="#b" id="a"/><g id="b" fill-rule="evenodd"><path d="M-10.35-1.2q-.3-.3-.2-.7Q-8.9-6.1-5.4-8.6q3.5-2.5 7.15-2.1 7.55.8 9.35 12.1l-.2.55q-.25.25-.55.15L9 1.75l.05.35q0 4.15-2.55 5.4l-.35.05H6l-.4-.15-.2-.15-.3-.35-1.05 1.15-1.45-.2Q1.85 9.95.85 10.6q-.45.3-.85 0-.85-.6-1.85-.65-.55 0-.55-.55v-.95q-.7.25-1.25.9-.4.4-.75.15l-1.5-1.05q-.35-.25-.35-.65l.1-.3.15-.25-.8.35-.6-.25-.15-.35.05-.3.2-1v-.6l-.05-.4q0 .35-.15.4l-.7.1L-9.55 4l-.15-.4.05-.1Q-9.3 1-8.4-1.1l-1.95-.1" fill="#03102a" transform="translate(11.15 10.75)"/><path d="M-9.3-2.05q1.25-3.25 4.1-5.4 2.8-2.1 5.85-2.2Q8.25-9.8 10 .9L8.1.55q.4 1.05-.05 3.15-.5 2.15-1.35 2.85l-1.25-.2q.95-1.3.7-3.25Q4.7 7.4 3.9 7l-1.8-.35q-.05.75-.7 2Q.8 9.85.6 9.7q-.75-.6-2.15-.7l-.25-1.8q-.7-.1-2.15 1.55-.75-.35-1.3-1.25.95-1.15.95-3.8-.5 2.35-2.3 2.9.25-.5-.05-1.85-.3-1.45.4-3.5-1.05.6-1.35 2.7l-.95-.8Q-8.45-.3-7-2.5l-2.3.45" fill="#0075d6" transform="translate(11.15 10.75)"/><path d="m-5.35-.8 1.25-.1q.5 2.2-.5 5.6-.4.95-.9 1.3.55-1.35.15-3.15L-6-.4q.1-.6.65-.4M-7.25-2l1.2.05q0 1.9-.4 3.35-.85.6-1.15 2.55l-.95-.8q.1-3 1.3-5.15M6-5.25 5.45-8.1q3.5 2.6 4.55 9L8.1.55q.4 1.05-.05 3.15-.5 2.15-1.35 2.85l-1.25-.2q.95-1.3.7-3.25Q4.7 7.4 3.9 7l-1.8-.35q-.05.75-.7 2Q.8 9.85.6 9.7q-.75-.6-2.15-.7l-.25-1.8q-.7-.1-2.15 1.55l-.5-.3q1.7-1.7 2.4-3.8.2-.65-.05-2.4-.3-1.55.2-2.3l.25 1.65.85-2.75.8-2 .4 4.6q1.7.75 2.15.2.65-.7.25-4.15l-.35-2.15q.95.95 1.75 3.4l.75 1.8Q6.5-.65 6-5.25" fill="#243c89" transform="translate(11.15 10.75)"/><path d="M6.55-1q-.2-.35.15-.65l1.8-.45q1.25.15 1.55 4.35.15 1.7-.45 1.85l-2.25-.05q-.3-.3-.2-.6Q7.65 1 6.55-1" fill="#03102a" transform="translate(11.15 10.75)"/><path d="m6.1-1.6.55-.7q.8-.6 1.85.2.5.35.95 2.7.5 2.4.05 2.7l-.95.1q-.8 0-.8-.2Q8.1-.1 6.1-1.6" fill="#243c89" transform="translate(11.15 10.75)"/><path d="M1.5-3.5q1.45-1.2 2.55-.75Q5.5-3.7 6.1 0l.45 3.55q.1.4-.25.5-1.3.65-1.8.4-.2-.15-.45-.9-.7 2.35-1.75 3.1l-.3.1L.25 6.3 0 5.95v-.1l.1-.3q.8-1.1 1.3-3.35L-.1 4.35q-.25.35-.65.1l-1.4-.85-.2-.35-.05-.05.2-.35Q.15.4 1.2-2.95l.3-.55" fill="#03102a" transform="translate(11.15 10.75)"/><path d="M1.8-3.1q2.1-1.75 3.15.55.55 1.15.7 2.75l.3 3.1Q4.9 4 4.9 3.75q-.3-1.7-1.15-2.55L3.4 3.05q-.35 2.2-1.4 2.9l-1.05-.2q.9-1.2 1.2-3.5l.1-2.1L-.4 3.6l-1.05-.65Q.3 1.15 1.2-1.1l.6-2" fill="#0075d6" transform="translate(11.15 10.75)"/><path d="m-.4 3.6-1.05-.65Q.1 1.4.9-.45L1.65.8l.05.05L-.4 3.6" fill="#0075d6" transform="translate(11.15 10.75)"/><path d="M3.55 1.8Q3.25 5.15 2 5.95l-1.05-.2.45-.7Q2.45 4 3.55 1.8m1.2-2.75h-1.6L1.65.8.9-.45l.9-2.65Q4.5-5.35 5.45-.95l.5 4.25Q4.9 4 4.9 3.75l-.3-.85q.35-.15.65-.35l-.5-3.5" fill="#243c89" transform="translate(11.15 10.75)"/><path d="m4.4-6 .45 2.5-.1.85.85.1Q5.35-4.6 4.4-6M.7-6.65Q.3-7.95.85-8.3q1.25-.85 3.55.85 2.05 1.45 2.2 5l-.15.9-.6.05-1.65-.2q-.25 0-.4-.2l-.1-.3v-.15l.05-.4L2.5-.45q-.2.25-.45.15l-.4-.3Q1-1.95.15-2.75q-.3-.25-.05-.7 1.05-1.6.6-3.2" fill="#03102a" transform="translate(11.15 10.75)"/><path d="M.75-8.05q-.75-1.15.5-1.1 1.25.05 2.8 1.35 1.7 1.35 2 5.35l-1.75-.1q.15-1.35-.25-2.6L3.6-6.1q.2 2.6-1.3 4.75Q1.6-2.5.7-3.3q1.4-2.65.05-4.75" fill="#0075d6" transform="translate(11.15 10.75)"/><path d="m2.3-1.35-1.15-1.5q1.6-.2 2.25-1.1-.35 1.55-1.1 2.6M4.85-2.5q.85-.65 1-1.75.4 1.7.2 1.8l-1.2-.05" fill="#243c89" transform="translate(11.15 10.75)"/><path d="M-7.1-4.75q2.25-1.55 3.7.45.7 1-.1 2.5-1.05 1.8-.45 3.95l-1.2.3-1.7-.05-.3-.35-.1-1.05.1-1.15-.5 1.3-.3.35h-.45l-2.3-.35-.4-.25-.05-.25.05-.2q1.65-3.45 4-5.2" fill="#03102a" transform="translate(11.15 10.75)"/><path d="M-6.05-4.8q1.6-1.1 3.05-.5 1.45.6.25 2.05-2.45 1.6-1.9 4.6l-.7.25-.9-.05q-.75-2.5.7-3.9-1.3.55-2.2 1.75L-8.4.5l-1.75-.3q1.35-3.45 4.1-5" fill="#0075d6" transform="translate(11.15 10.75)"/><path d="M1.3-3.65q.9-.85.7-2.6-.2-1.25-.85-1.9 1.75 1.4 1.3 3.3Q1.9-3.8 1.3-3.65" fill="#8af1ff" transform="translate(11.15 10.75)"/><path d="M4.4-2.6q.5-2.35-1.1-4.65l-.45-.65q1.9 1.3 2 3.55Q4.7-3 4.4-2.6" fill="#61dfe5" transform="translate(11.15 10.75)"/><path d="M-8.2-2.75Q-7.1-4.1-5.4-5.1l-2.25 2.45Q-8.5-1.45-8.9.25l-1.2-.2q.35-1.05 1.9-2.8M-6.25-.6q.4-1.65 1.95-2.65-1.65 1.65-.9 4.1l-.85.8q-.55-.9-.2-2.25" fill="#deeef9" transform="translate(11.15 10.75)"/><path d="M-4.95-4.4q.45-1.5 2.25-2.25l.9-.2q-1.7.9-1.4 1.6-.7.4-1.75.85" fill="#8af1ff" transform="translate(11.15 10.75)"/><path d="M-7.8-4.3q2.65-4.6 7.1-4.95-.95.1-2.95 1.5L-5.95-6-7.8-4.3" fill="#deeef9" transform="translate(11.15 10.75)"/><path d="M-2.15-7.9Q-1.3-9-.3-8.95q-.95 1.1-1.85 1.05m-1.4 9.3q.65 3.2.4 4.1-.95 2.35-1.65 1.65.95-1.7 1.15-3.15l.1-2.6M-3.7-.45-3.1-2l2.7-3.15q-.2 1-1.25 2.3-.9 1.05-.9 2.3l-1.15.1m4.8-.2h.25l.45.25L.4 1.9q-.9 1.55-1.75 1Q.1.45 1.1-.65" fill="#8af1ff" transform="translate(11.15 10.75)"/><path d="m5.1 2.35-.5.15q-.5-.75-1.15-3.15.6.75 1.65 3" fill="#61dfe5" transform="translate(11.15 10.75)"/><path d="M2.25 3.15q.4-1.6.05-2.3L2.6.6l.25.1q.1 1.6-1 4.7l-.55-.1q.6-.6.95-2.15M-6.5 4.9-6.55 3q.45 0 .6 1.4 0 1.5-.4 1.9.15-.3-.15-1.4" fill="#8af1ff" transform="translate(11.15 10.75)"/></g></defs></svg>

<?xml version="1.0" encoding="UTF-8" standalone="no"?>
<svg xmlns:xlink="http://www.w3.org/1999/xlink" height="65.4px" width="80.15px" xmlns="http://www.w3.org/2000/svg">
  <g transform="matrix(1.0, 0.0, 0.0, 1.0, 31.6, 13.8)">
    <use height="21.5" transform="matrix(1.0, 0.0, 0.0, 1.0, -31.6, 19.1)" width="22.25" xlink:href="#sprite0"/>
    <use height="21.5" transform="matrix(-1.0, 0.0, 0.0, 1.0, 32.1, 19.1)" width="22.25" xlink:href="#sprite0"/>
  </g>
  <defs>
    <g id="sprite0" transform="matrix(1.0, 0.0, 0.0, 1.0, 11.15, 10.75)">
      <use height="21.5" transform="matrix(1.0, 0.0, 0.0, 1.0, -11.15, -10.75)" width="22.25" xlink:href="#shape0"/>
    </g>
    <g id="shape0" transform="matrix(1.0, 0.0, 0.0, 1.0, 11.15, 10.75)">
      <path d="M-10.35 -1.2 Q-10.65 -1.5 -10.55 -1.9 -8.9 -6.1 -5.4 -8.6 -1.9 -11.1 1.75 -10.7 9.3 -9.9 11.1 1.4 L10.9 1.95 Q10.65 2.2 10.35 2.1 L9.0 1.75 9.05 2.1 Q9.05 6.25 6.5 7.5 L6.15 7.55 6.0 7.55 5.6 7.4 5.4 7.25 5.1 6.9 4.05 8.05 2.6 7.85 Q1.85 9.95 0.85 10.6 0.4 10.9 0.0 10.6 -0.85 10.0 -1.85 9.95 -2.4 9.95 -2.4 9.4 L-2.4 8.45 Q-3.1 8.7 -3.65 9.35 -4.05 9.75 -4.4 9.5 L-5.9 8.45 Q-6.25 8.2 -6.25 7.8 L-6.15 7.5 -6.0 7.25 -6.8 7.6 -7.4 7.35 -7.55 7.0 -7.5 6.7 -7.3 5.7 -7.3 5.1 -7.35 4.7 Q-7.35 5.05 -7.5 5.1 L-8.2 5.2 -9.55 4.0 -9.7 3.6 -9.65 3.5 Q-9.3 1.0 -8.4 -1.1 L-10.35 -1.2" fill="#03102a" fill-rule="evenodd" stroke="none"/>
      <path d="M-9.3 -2.05 Q-8.05 -5.3 -5.2 -7.45 -2.4 -9.55 0.65 -9.65 8.25 -9.8 10.0 0.9 L8.1 0.55 Q8.5 1.6 8.05 3.7 7.55 5.85 6.7 6.55 L5.45 6.35 Q6.4 5.05 6.15 3.1 4.7 7.4 3.9 7.0 L2.1 6.65 Q2.05 7.4 1.4 8.65 0.8 9.85 0.6 9.7 -0.15 9.1 -1.55 9.0 L-1.8 7.2 Q-2.5 7.1 -3.95 8.75 -4.7 8.4 -5.25 7.5 -4.3 6.35 -4.3 3.7 -4.8 6.05 -6.6 6.6 -6.35 6.1 -6.65 4.75 -6.95 3.3 -6.25 1.25 -7.3 1.85 -7.6 3.95 L-8.55 3.15 Q-8.45 -0.3 -7.0 -2.5 L-9.3 -2.05" fill="#0075d6" fill-rule="evenodd" stroke="none"/>
      <path d="M-5.35 -0.8 L-4.1 -0.9 Q-3.6 1.3 -4.6 4.7 -5.0 5.65 -5.5 6.0 -4.95 4.65 -5.35 2.85 L-6.0 -0.4 Q-5.9 -1.0 -5.35 -0.8" fill="#243c89" fill-rule="evenodd" stroke="none"/>
      <path d="M-7.25 -2.0 L-6.05 -1.95 Q-6.05 -0.05 -6.45 1.4 -7.3 2.0 -7.6 3.95 L-8.55 3.15 Q-8.45 0.15 -7.25 -2.0" fill="#243c89" fill-rule="evenodd" stroke="none"/>
      <path d="M6.0 -5.25 L5.45 -8.1 Q8.95 -5.5 10.0 0.9 L8.1 0.55 Q8.5 1.6 8.05 3.7 7.55 5.85 6.7 6.55 L5.45 6.35 Q6.4 5.05 6.15 3.1 4.7 7.4 3.9 7.0 L2.1 6.65 Q2.05 7.4 1.4 8.65 0.8 9.85 0.6 9.7 -0.15 9.1 -1.55 9.0 L-1.8 7.2 Q-2.5 7.1 -3.95 8.75 L-4.45 8.45 Q-2.75 6.75 -2.05 4.65 -1.85 4.0 -2.1 2.25 -2.4 0.7 -1.9 -0.05 L-1.65 1.6 -0.8 -1.15 0.0 -3.15 0.4 1.45 Q2.1 2.2 2.55 1.65 3.2 0.95 2.8 -2.5 L2.45 -4.65 Q3.4 -3.7 4.2 -1.25 L4.95 0.55 Q6.5 -0.65 6.0 -5.25" fill="#243c89" fill-rule="evenodd" stroke="none"/>
      <path d="M6.55 -1.0 Q6.35 -1.35 6.7 -1.65 L8.5 -2.1 Q9.75 -1.95 10.05 2.25 10.2 3.95 9.6 4.1 L7.35 4.05 Q7.05 3.75 7.15 3.45 7.65 1.0 6.55 -1.0" fill="#03102a" fill-rule="evenodd" stroke="none"/>
      <path d="M6.1 -1.6 L6.65 -2.3 Q7.45 -2.9 8.5 -2.1 9.0 -1.75 9.45 0.6 9.95 3.0 9.5 3.3 L8.55 3.4 Q7.75 3.4 7.75 3.2 8.1 -0.1 6.1 -1.6" fill="#243c89" fill-rule="evenodd" stroke="none"/>
      <path d="M1.5 -3.5 Q2.95 -4.7 4.05 -4.25 5.5 -3.7 6.1 0.0 L6.55 3.55 Q6.65 3.95 6.3 4.05 5.0 4.7 4.5 4.45 4.3 4.3 4.05 3.55 3.35 5.9 2.3 6.65 L2.0 6.75 0.25 6.3 0.0 5.95 0.0 5.85 0.1 5.55 Q0.9 4.45 1.4 2.2 L-0.1 4.35 Q-0.35 4.7 -0.75 4.45 L-2.15 3.6 -2.35 3.25 -2.4 3.2 -2.2 2.85 Q0.15 0.4 1.2 -2.95 L1.5 -3.5" fill="#03102a" fill-rule="evenodd" stroke="none"/>
      <path d="M1.8 -3.1 Q3.9 -4.85 4.95 -2.55 5.5 -1.4 5.65 0.2 L5.95 3.3 Q4.9 4.0 4.9 3.75 4.6 2.05 3.75 1.2 L3.4 3.05 Q3.05 5.25 2.0 5.95 L0.95 5.75 Q1.85 4.55 2.15 2.25 L2.25 0.15 -0.4 3.6 -1.45 2.95 Q0.3 1.15 1.2 -1.1 L1.8 -3.1" fill="#0075d6" fill-rule="evenodd" stroke="none"/>
      <path d="M-0.4 3.6 L-1.45 2.95 Q0.1 1.4 0.9 -0.45 L1.65 0.8 1.7 0.85 -0.4 3.6" fill="#0075d6" fill-rule="evenodd" stroke="none"/>
      <path d="M3.55 1.8 Q3.25 5.15 2.0 5.95 L0.95 5.75 1.4 5.05 Q2.45 4.0 3.55 1.8 M4.75 -0.95 L3.15 -0.95 1.65 0.8 0.9 -0.45 1.8 -3.1 Q4.5 -5.35 5.45 -0.95 L5.95 3.3 Q4.9 4.0 4.9 3.75 L4.6 2.9 Q4.95 2.75 5.25 2.55 L4.75 -0.95" fill="#243c89" fill-rule="evenodd" stroke="none"/>
      <path d="M4.4 -6.0 L4.85 -3.5 4.75 -2.65 5.6 -2.55 Q5.35 -4.6 4.4 -6.0 M0.7 -6.65 Q0.3 -7.95 0.85 -8.3 2.1 -9.15 4.4 -7.45 6.45 -6.0 6.6 -2.45 L6.45 -1.55 5.85 -1.5 4.2 -1.7 Q3.95 -1.7 3.8 -1.9 L3.7 -2.2 3.7 -2.35 3.75 -2.75 2.5 -0.45 Q2.3 -0.2 2.05 -0.3 L1.65 -0.6 Q1.0 -1.95 0.15 -2.75 -0.15 -3.0 0.1 -3.45 1.15 -5.05 0.7 -6.65" fill="#03102a" fill-rule="evenodd" stroke="none"/>
      <path d="M0.75 -8.05 Q0.0 -9.2 1.25 -9.15 2.5 -9.1 4.05 -7.8 5.75 -6.45 6.05 -2.45 L4.3 -2.55 Q4.45 -3.9 4.05 -5.15 L3.6 -6.1 Q3.8 -3.5 2.3 -1.35 1.6 -2.5 0.7 -3.3 2.1 -5.95 0.75 -8.05" fill="#0075d6" fill-rule="evenodd" stroke="none"/>
      <path d="M2.3 -1.35 L1.15 -2.85 Q2.75 -3.05 3.4 -3.95 3.05 -2.4 2.3 -1.35" fill="#243c89" fill-rule="evenodd" stroke="none"/>
      <path d="M4.85 -2.5 Q5.7 -3.15 5.85 -4.25 6.25 -2.55 6.05 -2.45 L4.85 -2.5" fill="#243c89" fill-rule="evenodd" stroke="none"/>
      <path d="M-7.1 -4.75 Q-4.85 -6.3 -3.4 -4.3 -2.7 -3.3 -3.5 -1.8 -4.55 0.0 -3.95 2.15 L-5.15 2.45 -6.85 2.4 -7.15 2.05 -7.25 1.0 -7.15 -0.15 -7.65 1.15 -7.95 1.5 -8.4 1.5 -10.7 1.15 -11.1 0.9 -11.15 0.65 -11.1 0.45 Q-9.45 -3.0 -7.1 -4.75" fill="#03102a" fill-rule="evenodd" stroke="none"/>
      <path d="M-6.05 -4.8 Q-4.45 -5.9 -3.0 -5.3 -1.55 -4.7 -2.75 -3.25 -5.2 -1.65 -4.65 1.35 L-5.35 1.6 -6.25 1.55 Q-7.0 -0.95 -5.55 -2.35 -6.85 -1.8 -7.75 -0.6 L-8.4 0.5 -10.15 0.2 Q-8.8 -3.25 -6.05 -4.8" fill="#0075d6" fill-rule="evenodd" stroke="none"/>
      <path d="M1.3 -3.65 Q2.2 -4.5 2.0 -6.25 1.8 -7.5 1.15 -8.15 2.9 -6.75 2.45 -4.85 1.9 -3.8 1.3 -3.65" fill="#8af1ff" fill-rule="evenodd" stroke="none"/>
      <path d="M4.4 -2.6 Q4.9 -4.95 3.3 -7.25 L2.85 -7.9 Q4.75 -6.6 4.85 -4.35 4.7 -3.0 4.4 -2.6" fill="#61dfe5" fill-rule="evenodd" stroke="none"/>
      <path d="M-8.2 -2.75 Q-7.1 -4.1 -5.4 -5.1 L-7.65 -2.65 Q-8.5 -1.45 -8.9 0.25 L-10.1 0.05 Q-9.75 -1.0 -8.2 -2.75" fill="#deeef9" fill-rule="evenodd" stroke="none"/>
      <path d="M-6.25 -0.6 Q-5.85 -2.25 -4.3 -3.25 -5.95 -1.6 -5.2 0.85 L-6.05 1.65 Q-6.6 0.75 -6.25 -0.6" fill="#deeef9" fill-rule="evenodd" stroke="none"/>
      <path d="M-4.95 -4.4 Q-4.5 -5.9 -2.7 -6.65 L-1.8 -6.85 Q-3.5 -5.95 -3.2 -5.25 -3.9 -4.85 -4.95 -4.4" fill="#8af1ff" fill-rule="evenodd" stroke="none"/>
      <path d="M-7.8 -4.3 Q-5.15 -8.9 -0.7 -9.25 -1.65 -9.15 -3.65 -7.75 L-5.95 -6.0 -7.8 -4.3" fill="#deeef9" fill-rule="evenodd" stroke="none"/>
      <path d="M-2.15 -7.9 Q-1.3 -9.0 -0.3 -8.95 -1.25 -7.85 -2.15 -7.9" fill="#8af1ff" fill-rule="evenodd" stroke="none"/>
      <path d="M-3.55 1.4 Q-2.9 4.6 -3.15 5.5 -4.1 7.85 -4.8 7.15 -3.85 5.45 -3.65 4.0 L-3.55 1.4" fill="#8af1ff" fill-rule="evenodd" stroke="none"/>
      <path d="M-3.7 -0.45 L-3.1 -2.0 -0.4 -5.15 Q-0.6 -4.15 -1.65 -2.85 -2.55 -1.8 -2.55 -0.55 L-3.7 -0.45" fill="#8af1ff" fill-rule="evenodd" stroke="none"/>
      <path d="M1.1 -0.65 L1.35 -0.65 1.8 -0.4 0.4 1.9 Q-0.5 3.45 -1.35 2.9 0.1 0.45 1.1 -0.65" fill="#8af1ff" fill-rule="evenodd" stroke="none"/>
      <path d="M5.1 2.35 L4.6 2.5 Q4.1 1.75 3.45 -0.65 4.05 0.1 5.1 2.35" fill="#61dfe5" fill-rule="evenodd" stroke="none"/>
      <path d="M2.25 3.15 Q2.65 1.55 2.3 0.85 L2.6 0.6 2.85 0.7 Q2.95 2.3 1.85 5.4 L1.3 5.3 Q1.9 4.7 2.25 3.15" fill="#8af1ff" fill-rule="evenodd" stroke="none"/>
      <path d="M-6.5 4.9 L-6.55 3.0 Q-6.1 3.0 -5.95 4.4 -5.95 5.9 -6.35 6.3 -6.2 6.0 -6.5 4.9" fill="#8af1ff" fill-rule="evenodd" stroke="none"/>
    </g>
  </defs>
</svg>
